assets/icons/uE015-list.svg

<svg xmlns="http://www.w3.org/2000/svg" width="896" height="1232" viewBox="0 0 896 1232"><path d="M840 56q23 0 39.5 16.5T896 112v784q0 23-16.5 39.5T840 952H56q-23 0-39.5-16.5T0 896V112q0-23 16.5-39.5T56 56h784zM168 896V784H56v112h112zm0-168V616H56v112h112zm0-168V448H56v112h112zm0-168V280H56v112h112zm0-168V112H56v112h112zm672 672V784H224v112h616zm0-168V616H224v112h616zm0-168V448H224v112h616zm0-168V280H224v112h616zm0-168V112H224v112h616z"/></svg>

<?xml version="1.0" encoding="UTF-8" standalone="no"?><svg   xmlns:svg="http://www.w3.org/2000/svg"   xmlns="http://www.w3.org/2000/svg"   version="1.1"   width="896"   height="1232"   viewBox="0 0 896 1232">  <path     d="M840 56Q863 56 879.5 72.5T896 112V896Q896 919 879.5 935.5T840 952H56Q33 952 16.5 935.5T0 896V112Q0 89 16.5 72.5T56 56H840zM168 896V784H56V896H168zM168 728V616H56V728H168zM168 560V448H56V560H168zM168 392V280H56V392H168zM168 224V112H56V224H168zM840 896V784H224V896H840zM840 728V616H224V728H840zM840 560V448H224V560H840zM840 392V280H224V392H840zM840 224V112H224V224H840z"     id="icon234" /></svg>
